X:99
T: DA UNTEN IN DER MUEHLE                                           0126
N: F0210
O: Europa, Mitteleuropa, Deutschland
R: Stimmungs - Lied, Todes - Ahnung
M: 6/8
L: 1/8
K: F
F | F2FF2F | FE
FG2G | G4FG | A3-Az
F | F2FF2F | A3G2
G | F2FEDE | F4z

